X: 6
T: Kupilemel
O: Israel
M: C
L: 1/8
K: C
|: "Am"AA ed cd2c | edcB A2 "G"G2 \
  |1 "C"cc     dd    cc      BA    | "E7"e8 \
 :|2 "C"cc "Dm"dd "C"cc "Bb"_B/A/B | "Am"A8 ||
"A"ee fg aa-a2 | ee fg a8 | "A7"a2 g2 f2 e2 | "Dm"~dA fe d4 |
"G"dd ef gg-g2 | dd ef g4 | "G7"g2 f2 e2 d2 | "C"cc d^d "E7"e4 ||


